!!!OTL@@DE: Musketierlied
!!!COM: Silcher, Friedrich
!!!ODT: 1827
!!!OMD: Lustig
!!!LYR: Hebel, Johann Peter
!!!LDT: 1809
!!!OCL: Erk, Ludwig
!!!GCO: Deutscher Liederschatz, Band 1
**kern	**kern	**kern
*staff3	*staff2	*staff1
*Ipiano	*Ipiano	*Ivox
=1-	=1-	=1-
*clefF4	*clefG2	*clefG2
*k[f#]	*k[f#]	*k[f#]
*G:	*G:	*G:
*M2/4	*M2/4	*M2/4
*MM104	*MM104	*MM104
4GG/ 4G/	4B/ 4d/ 4g/	4g/
8D\L	8A/ 8d/ 8f#/L	8f#/
8D\ 8F#\J	8c/ 8d/ 8a/J	8a/
=2	=2	=2
8G/L	8B/ 8d/ 8g/L	4g/
16.GG/L	16.G/L	.
32BB/JJk	32B/JJk	.
8D\L	8d/L	4r
8G\J	8g/J	.
=3	=3	=3
4GG/ 4G/	4d/ 4g/ 4b/	4b\
8D\L	8d/ 8f#/ 8a/L	8a/
8D\ 8F#\J	8d/ 8a/ 8cc/J	8cc\
=4	=4	=4
8G/L	8d/ 8g/ 8b/L	4b\
16.GG/L	16.G/ 16.B/L	.
32BB/JJk	32G/ 32d/JJk	.
8D\L	8B/ 8g/L	4r
8G\J	8d/ 8b/J	.
=5	=5	=5
4DD/ 4D/	(8d/ 8f#/ 8a/L	8a/L
.	8e/) 8g/	8g/J
8D\ 8A\L	8d/ 8f#/	8f#/
8D\ 8A\J	8e/ 8g/J	8g/
=6	=6	=6
4DD/ 4D/	8f#/ 8a/L	8a/
.	8g/ 8b/	8b\
8D\ 8A\L	8f#/ 8a/	4a/
8D\ 8A\J	8d/ 8f#/J	.
=7	=7	=7
4AAA/ 4AA/	8d/ 8e/L	4e/
.	8d/ 8e/	.
8AA\ 8A\L	8c#/ 8e/ 8a/	8a/
8AA\ 8A\J	8c#/ 8e/ 8g/J	8g/
=8	=8	=8
8AA\ 8A\L	8d/ 8f#/L	8f#/
8AA\ 8G\J	8c#/ 8e/J	8e/
4D\ 4F#\	4d/	4d/
=9	=9	=9
4D\ 4A\	4d/ 4f#/ 4ccn/	4cc\
8D\ 8B\L	8d/ 8g/ 8b/L	8b\
8D\ 8c\J	8d/ 8f#/ 8a/J	8a/
=10	=10	=10
8G\ 8B\	8d/ 8g/L	8g/
(16GG/LL	8d/ 8g/ 8b/J	8b\
16BB/JJ)	.	.
8D/L	4d/ 4f#/ 4a/	4a/
8DD/J	.	.
=11	=11	=11
*	*^	*
4D\ 4A\	(8dd/L	4d\ 4f#\	8dd\L
.	8cc/J)	.	8cc\J
*	*v	*v	*
8D\ 8B\L	8d/ 8g/ 8b/L	8b\
8D\ 8c\J	8d/ 8f#/ 8a/J	8a/
=12	=12	=12
8G\ 8B\	8d/ 8g/L	8g/
(16GG/LL	8d/ 8g/ 8b/J	8b\
16BB/JJ)	.	.
8D/L	4d/ 4f#/ 4a/	4a/
8DD/J	.	.
=13	=13	=13
8GG/L	4d^/ 4g^/ 4b^/	4b^\
16.G/L	.	.
32G/JJk	.	.
8FF#/ 8F#/L	8d/ 8a/L	8a/
8FFn/ 8Fn/J	8d/ 8g/ 8b/J	8b\
=14	=14	=14
*	*^	*
*	*	*^	*
4EE/ 4E/	(4cc/	8g/L	4c\	(4cc\
.	.	16.g/L	.	.
.	.	32g/JJk	.	.
*	*	*v	*v	*
8CC/ 8C/L	4ee/)	8e\ 8g\L	8ee\)
8CC#/ 8C#/J	.	8g\ 8b-\J	8r
*	*v	*v	*
=15	=15	=15
*^	*	*
8D/L	4DD\	8d/ 8g/ 8bn/ 8dd/L	(8dd\L
16.D/L	.	8g/ 8b/J	8b\J)
32D/JJk	.	.	.
8D/L	4DD\	8d/ 8f#/ 8cc/L	8cc\
8D/J	.	8c/ 8d/ 8f#/ 8a/J	8a/
*v	*v	*	*
=16	=16	=16
8GG/ 8G/	8B/ 8d/ 8g/L	4g/
8r	16.G/L	.
.	32G/JJk	.
4GGG/ 4GG/	4G/	4r
==	==	==
*-	*-	*-
!!!ENC: Craig Stuart Sapp
!!!END: 2004/06/27/
!!!EFL: 160/651
